tools/download-figma-icons/icons/solid/parking.svg

<svg width="24" height="24" viewBox="0 0 24 24" fill="none" xmlns="http://www.w3.org/2000/svg">
<path fill-rule="evenodd" clip-rule="evenodd" d="M11.3926 13.5373C12.8475 13.5373 14.3775 13.3873 15.24 12.5323C16.05 11.7299 16.5 10.6574 16.5 9.51738C16.5 8.37739 16.05 7.3049 15.24 6.50241C13.9358 5.20563 11.8149 5.23564 10.2776 5.25738L10.2751 5.25742H9.75008C9.33758 5.25742 9.00009 5.59492 9.00009 6.00741V17.9998C9.00009 18.4123 9.33758 18.7498 9.75008 18.7498C10.1618 18.7498 10.5001 18.4123 10.5001 17.9998V13.5223C10.7918 13.5298 11.0851 13.5373 11.3926 13.5373ZM0.000244138 11.9999C0.000244138 5.38495 5.38444 0 12.0001 0C18.6151 0 24 5.38495 24 11.9999C24 18.6148 18.6151 23.9998 12.0001 23.9998C5.38444 23.9998 0.000244138 18.6148 0.000244138 11.9999ZM15 9.51802C15 8.78228 14.7075 8.08478 14.1825 7.56729C13.365 6.7573 11.805 6.7423 10.5 6.7498V12.0222C11.7292 12.0597 13.5742 12.0672 14.1825 11.4672C14.7075 10.9498 15 10.2523 15 9.51802Z" fill="black"/>
</svg>

<svg xmlns="http://www.w3.org/2000/svg" width="24" height="24" fill="none" viewBox="0 0 24 24"><path fill="currentColor" fill-rule="evenodd" d="M11.393 13.537c1.454 0 2.984-.15 3.847-1.005a4.22 4.22 0 0 0 1.26-3.015 4.22 4.22 0 0 0-1.26-3.015c-1.304-1.296-3.425-1.266-4.962-1.245H9.75a.75.75 0 0 0-.75.75V18c0 .412.338.75.75.75s.75-.338.75-.75v-4.478c.292.008.585.015.893.015M0 12C0 5.385 5.384 0 12 0s12 5.385 12 12-5.385 12-12 12S0 18.615 0 12m15-2.482a2.73 2.73 0 0 0-.818-1.95c-.817-.81-2.377-.826-3.682-.818v5.272c1.23.038 3.074.045 3.682-.555A2.73 2.73 0 0 0 15 9.518" clip-rule="evenodd"/></svg>
